src/pos-icons/currency-eur.svg

<svg height="24" viewBox="0 0 24 24" width="24" xmlns="http://www.w3.org/2000/svg"><path d="m7.07 11-.07 1 .07 1h10.28l-.85 2h-8.83c1.13 2.36 3.54 4 6.33 4 2.23 0 4.22-1.04 5.5-2.67v2.79c-1.5 1.18-3.43 1.88-5.5 1.88-3.92 0-7.25-2.5-8.5-6h-3.5l1-2h2.05l-.05-1 .05-1h-3.05l1-2h2.5c1.25-3.5 4.58-6 8.5-6 2.5 0 4.8 1.04 6.43 2.71l-.86 2.04c-1.28-1.67-3.3-2.75-5.57-2.75-2.79 0-5.2 1.64-6.33 4h11.37l-.85 2z"/></svg>

<?xml version="1.0" encoding="UTF-8"?><!DOCTYPE svg PUBLIC "-//W3C//DTD SVG 1.1//EN" "http://www.w3.org/Graphics/SVG/1.1/DTD/svg11.dtd"><svg xmlns="http://www.w3.org/2000/svg" xmlns:xlink="http://www.w3.org/1999/xlink" version="1.1" id="mdi-currency-eur" width="24" height="24" viewBox="0 0 24 24"><path d="M7.07,11L7,12L7.07,13H17.35L16.5,15H7.67C8.8,17.36 11.21,19 14,19C16.23,19 18.22,17.96 19.5,16.33V19.12C18,20.3 16.07,21 14,21C10.08,21 6.75,18.5 5.5,15H2L3,13H5.05L5,12L5.05,11H2L3,9H5.5C6.75,5.5 10.08,3 14,3C16.5,3 18.8,4.04 20.43,5.71L19.57,7.75C18.29,6.08 16.27,5 14,5C11.21,5 8.8,6.64 7.67,9H19.04L18.19,11H7.07Z" /></svg>
